modules/hawcons-stroke/icons/box.svg

<?xml version="1.0" encoding="UTF-8" standalone="no"?>
<svg width="32px" height="32px" viewBox="0 0 32 32" version="1.1" xmlns="http://www.w3.org/2000/svg" xmlns:xlink="http://www.w3.org/1999/xlink" xmlns:sketch="http://www.bohemiancoding.com/sketch/ns">
    <!-- Generator: Sketch 3.0.3 (7891) - http://www.bohemiancoding.com/sketch -->
    <title>icon 143 box</title>
    <desc>Created with Sketch.</desc>
    <defs></defs>
    <g id="Page-1" stroke="none" stroke-width="1" fill="none" fill-rule="evenodd" sketch:type="MSPage">
        <g id="icon-143-box" sketch:type="MSArtboardGroup" fill="#929292">
            <path d="M5,13 L5,28 L28,28 L28,13 L30,13 L30,5 L3,5 L3,13 L5,13 L5,13 Z M6,13 L6,27 L27,27 L27,13 L6,13 L6,13 Z M4,6 L4,12 L29,12 L29,6 L4,6 L4,6 Z M13.9973917,18 C12.8942627,18 12,18.8877296 12,20 C12,21.1045695 12.8958578,22 13.9973917,22 L19.0026083,22 C20.1057373,22 21,21.1122704 21,20 C21,18.8954305 20.1041422,18 19.0026083,18 L13.9973917,18 L13.9973917,18 Z M14.0029293,19 C13.4490268,19 13,19.4438648 13,20 C13,20.5522847 13.4378814,21 14.0029293,21 L18.9970707,21 C19.5509732,21 20,20.5561352 20,20 C20,19.4477153 19.5621186,19 18.9970707,19 L14.0029293,19 L14.0029293,19 Z" id="box" sketch:type="MSShapeGroup"></path>
        </g>
    </g>
</svg>

<svg width="32" height="32" viewBox="0 0 32 32" xmlns="http://www.w3.org/2000/svg"><path d="M5 13v15h23V13h2V5H3v8h2zm1 0v14h21V13H6zM4 6v6h25V6H4zm9.997 12A1.994 1.994 0 0 0 12 20a2 2 0 0 0 1.997 2h5.006A1.994 1.994 0 0 0 21 20a2 2 0 0 0-1.997-2h-5.006zm.006 1A.999.999 0 0 0 13 20c0 .552.438 1 1.003 1h4.994A.999.999 0 0 0 20 20c0-.552-.438-1-1.003-1h-4.994z" fill="#929292" fill-rule="evenodd"/></svg>
